svgs/moon_reader.svg

<svg width="192" height="192" viewBox="0 0 192 192" fill="none" xmlns="http://www.w3.org/2000/svg">
<path d="M95.4231 168H171V74.371C139.048 67.2641 122.463 67.1555 95.4231 74.371V168ZM95.4231 168H21V74.371" stroke="black" stroke-width="10" stroke-linecap="round" stroke-linejoin="round"/>
<path d="M94 163C72.5303 152.247 66.0202 147.11 44 150.448V62.9064C65.7502 54.3195 72.2693 56.7175 94 72.3693" stroke="black" stroke-width="10" stroke-linecap="round" stroke-linejoin="round"/>
<path d="M21 74C29.3919 71.3682 44.4876 68.8286 43.9879 74" stroke="black" stroke-width="10" stroke-linecap="round" stroke-linejoin="round"/>
<path fill-rule="evenodd" clip-rule="evenodd" d="M138.841 31.7754C138.669 31.8525 138.473 31.803 138.358 31.6574C138.237 31.5149 138.236 31.308 138.344 31.1595C140.135 28.8101 142.524 26.8607 145.413 25.5748C154.583 21.4921 165.343 25.6222 169.426 34.7922C173.507 43.9622 169.378 54.7216 160.208 58.8043C157.265 60.1146 154.162 60.5777 151.161 60.3022C150.978 60.2817 150.833 60.1409 150.808 59.9573C150.778 59.7768 150.873 59.5999 151.047 59.5243C151.088 59.5037 151.129 59.4852 151.171 59.4667C158.526 56.1919 161.735 47.3292 158.333 39.6878C154.931 32.0464 146.197 28.5005 138.841 31.7754Z" stroke="black" stroke-width="6" stroke-miterlimit="1.5"/>
<path d="M80.5865 34.3313C75.0104 34.3313 70.4904 38.8513 70.4904 44.4274C70.4904 38.8513 65.9703 34.3313 60.3942 34.3313C65.9703 34.3313 70.4904 29.8112 70.4904 24.2351C70.4904 29.8112 75.0104 34.3313 80.5865 34.3313Z" stroke="black" stroke-width="6" stroke-linecap="round" stroke-linejoin="round"/>
<path d="M39.1923 48.4659C33.6162 48.4659 29.0962 52.986 29.0962 58.562C29.0962 52.986 24.5761 48.4659 19 48.4659C24.5761 48.4659 29.0962 43.9458 29.0962 38.3697C29.0962 43.9458 33.6162 48.4659 39.1923 48.4659Z" stroke="black" stroke-width="6" stroke-linecap="round" stroke-linejoin="round"/>
<path d="M126.019 57.5524C120.443 57.5524 115.923 62.0725 115.923 67.6486C115.923 62.0725 111.403 57.5524 105.827 57.5524C111.403 57.5524 115.923 53.0323 115.923 47.4563C115.923 53.0323 120.443 57.5524 126.019 57.5524Z" stroke="black" stroke-width="6" stroke-linecap="round" stroke-linejoin="round"/>
</svg>

<svg width="192" height="192" viewBox="0 0 192 192" fill="none" xmlns="http://www.w3.org/2000/svg"><path d="M95.423 168H171V74.371c-31.952-7.107-48.537-7.215-75.577 0V168Zm0 0H21V74.371" stroke="#000" stroke-width="10" stroke-linecap="round" stroke-linejoin="round"/><path d="M94 163c-21.47-10.753-27.98-15.89-50-12.552V62.906c21.75-8.587 28.27-6.188 50 9.463" stroke="#000" stroke-width="10" stroke-linecap="round" stroke-linejoin="round"/><path d="M21 74c8.392-2.632 23.488-5.171 22.988 0" stroke="#000" stroke-width="10" stroke-linecap="round" stroke-linejoin="round"/><path clip-rule="evenodd" d="M138.841 31.775a.402.402 0 0 1-.483-.118.404.404 0 0 1-.014-.497 18.134 18.134 0 0 1 7.069-5.585c9.17-4.083 19.93.047 24.013 9.217 4.081 9.17-.048 19.93-9.218 24.012a18.1 18.1 0 0 1-9.047 1.498.4.4 0 0 1-.353-.345.399.399 0 0 1 .239-.433c.041-.02.082-.039.124-.057 7.355-3.275 10.564-12.138 7.162-19.78-3.402-7.64-12.136-11.186-19.492-7.912Z" stroke="#000" stroke-width="6" stroke-miterlimit="1.5"/><path d="M80.587 34.331c-5.577 0-10.097 4.52-10.097 10.096 0-5.576-4.52-10.096-10.096-10.096 5.576 0 10.096-4.52 10.096-10.096 0 5.576 4.52 10.096 10.097 10.096ZM39.192 48.466c-5.576 0-10.096 4.52-10.096 10.096 0-5.576-4.52-10.096-10.096-10.096 5.576 0 10.096-4.52 10.096-10.096 0 5.576 4.52 10.096 10.096 10.096ZM126.019 57.552c-5.576 0-10.096 4.52-10.096 10.097 0-5.577-4.52-10.097-10.096-10.097 5.576 0 10.096-4.52 10.096-10.096 0 5.576 4.52 10.096 10.096 10.096Z" stroke="#000" stroke-width="6" stroke-linecap="round" stroke-linejoin="round"/></svg>
